!!!!SEGMENT: 062-1-BR-001.krn
!!!COM: F. Chopin
!!!OTL: No. I.
!!!OPS: Op. 62
!!!PTL: Deux Nocturnes
!!!PPR: Brandus
!!!PPP: Paris
!!!NIFC-rismID: 
!!!NIFC-shelfmark: 
!!!OMD: Andante.
**kern	**fing	**kern	**fing	**dynam
*part1	*	*part1	*	*part1
*staff2	*	*staff1	*	*
*I"PIANO.	*	*	*	*
*clefF4	*	*clefG2	*	*
*k[f#c#g#d#a#]	*	*k[f#c#g#d#a#]	*	*
*B:	*	*B:	*	*
*M4/4	*	*M4/4	*	*
*met(c)	*	*met(c)	*	*
=1-	=1-	=1-	=1-	=1-
*	*^	*	*	*
*ped	*	*	*	*	*
!	!	!	!	!	!LO:DY:rj
N(>[<8qqCC#/L	.	5	.	.	f
[<8qqGG#/	.	.	.	.	.
[<8qqC#/	.	.	.	.	.
[<8qqG#/	.	1	.	.	.
[<8qqB/	1	.	.	.	.
[<8qqe>/	.	.	.	.	.
[<8qqg#>/J	.	.	.	.	.
!LO:TX:t=P:problem:ped pod 4qqCC#	!	!	!	!	!
1ee>\ 1g#>\] 1e>\] 1B\] 1G#\] 1C#\] 1GG#\] 1CC#\]	.	.	1ryy	.	>
.	.	.	.	.	.
*Xped	*	*	*	*	*
*	*v	*v	*	*	*
=2	=2	=2	=2	=2
*ped	*	*	*	*
1A#/ 1FF#/	.	1cc#/N) 1f#/ 1e/	.	.
.	.	.	.	]]
*Xped	*	*	*	*
=3	=3	=3	=3	=3
!	!	!LO:TX:b:i:t=dolce . legato .	!	!
1rF	.	2r	.	.
.	.	(>8b\L	.	.
.	.	8a#/	.	.
.	.	8g#/	.	.
.	.	8f#/J	.	.
=4	=4	=4	=4	=4
*^	*	*^	*	*
*	*^	*	*	*	*	*
*ped	*	*	*	*	*	*	*
!	!	!LO:TX:a:t=P:problem:mixed beam	!	!LO:TX:a:t=P:problem:łuk pionowo od 4dd# do 4d#	!	!	!
4ryy	4.ryy	(>8BBB/L	.	>4dd#/	4d#\	.	.
.	.	8F#\	.	.	.	.	.
4B/	.	8B\	.	8cc#/L	4d#\	.	.
*Xped	*	*	*	*	*	*	*
.	4F#/	8F#\J	.	8b/J)	.	.	.
4c#/	.	8c#\L	.	(>8b/L	4e\	.	.
.	4.F#/	8F#\	.	8a#/	.	.	.
.	.	.	.	.	(<8qqa#/	.	.
4ryy	.	8B\	.	8g#/	4e\)	.	.
.	.	8A#\J)	.	8f#/J	.	.	.
*v	*v	*v	*	*	*	*	*
!!LO:LB:g=original
=5	=5	=5	=5	=5	=5
*ped	*	*	*	*	*
!	!	!LO:TX:a:t=P:problem:łuk pionowo od 2d# do 4ff#	!	!	!
(>8BB/L	.	4ff#/	2an\ 2d#\	.	.
8F#\	.	.	.	.	.
8B\	.	4ff#/	.	.	.
*Xped	*	*	*	*	*
8B#X\J	.	.	.	.	.
*ped	*	*	*	*	*
8d#\L)	.	4ff#/ 4a/	2ryy	.	.
(>8BB#X\	.	.	.	.	.
*Xped	*	*	*	*	*
8C#\	.	8ee/L 8g#/ 8e/	.	.	.
.	.	.	.	.	.
8Bn\J 8D#\	.	8dd#/J 8f#/	.	.	.
=6	=6	=6	=6	=6	=6
*^	*	*	*^	*	*
*	*^	*	*	*	*	*	*
8ryy	4E/	8E\L	.	8dd#/L	2ryy	4.g#\	.	.
4B/.	.	8B\	.	8cc#/	.	.	.	.
.	2.ryy	8E\	.	8ee/	.	.	.	.
.	.	8E#X\J	.	8dd#/Jk	.	8g#\	.	.
!	!	!	!	!	!	!LO:TX:a:t=P:problem:łuk pionowo od 2e do 4dd#	!	!
4B/	.	[<\2F#	.	4dd#/	8g#/	[<2e\	.	.
.	.	.	.	.	[>4.f#/	.	.	.
8A#/L	.	.	.	8.cc#/L	.	.	.	.
8d#/J	.	.	.	.	.	.	.	.
.	.	.	.	16b/Jk	.	.	.	.
*	*	*	*	*	*v	*v	*	*
=7	=7	=7	=7	=7	=7	=7	=7
4c#/	8ryy	8F#\L]	.	8b/L	4f#\] 4e\]	.	.
.	4.F#/	8F#\	.	8a#/	.	.	.
4ryy	.	8B\	.	8g#/	4e\	.	.
.	.	8A#\J)	.	8f#/J	.	.	.
*ped	*	*	*	*	*	*	*
!	!	!	!	!LO:TX:a:t=P:łuk pionowo od 4d# do 4dd#:problem	!	!	!
!	!	!LO:TX:a:t=P:problem:mixed beam 	!	!	!	!	!
4ryy	8ryy	(>/8BBBL	.	>4dd#/ 4f#/	4d#\	.	.
.	4F#/	8F#\	.	.	.	.	.
4B/	.	8B\	.	8cc#/L	4d#\	.	.
*Xped	*	*	*	*	*	*	*
.	8ryy	8F#\J	.	8b/J	.	.	.
=8	=8	=8	=8	=8	=8	=8	=8
4c#/	8ryy	8c#\L	.	8b/L	4e\	.	.
.	4.F#/	8F#\	.	8a#/J	.	.	.
.	.	.	.	.	.	.	<
2.ryy	.	8B\	.	12a#/L	4e\	.	.
.	.	.	.	12g#/	.	.	.
.	.	8A#\J)	.	.	.	.	.
.	.	.	.	12f#/J	.	.	.
*ped	*	*	*	*	*	*	*
.	.	.	.	8qd#/	.	.	.
!	!	!	!	!LO:TX:a:t=P:łuk pionowo od 4d# do 4ff#:problem	!	!	!
.	2ryy	8BBB/L	.	>4ff#/)	2an\ 2d#\	.	.
.	.	8BB/	.	.	.	.	.
.	.	8F#/	.	(4ff#/	.	.	.
.	.	8B/J	.	.	.	.	[
*Xped	*	*	*	*	*	*	*
*	*v	*v	*	*	*	*	*
!!LO:LB:g=original
=9	=9	=9	=9	=9	=9	=9
!LO:TX:b:t=P:złamana belka:b:problem	!	!	!	!	!	!
*ped	*	*	*	*	*	*
2ryy	(>8EE\L	.	4ff#\ 4an\ 4d#\	4ryy	.	.
.	.	.	.	.	.	>
.	8B#X\	.	.	.	.	.
*Xped	*	*	*	*	*	*
.	8c#\	.	8ee/L 8g#/	4e\	.	.
.	8G#\J	.	8dd#/J 8bn/	.	.	.
4.Bn/	8E\L	.	8dd#/L	4g#\	.	.
.	8E#X\	.	8cc#/	.	.	.
.	8F#\	.	8dd#/ 8f#/	4ryy	.	.
8B/	8G#\J	.	8b/J 8e/	.	.	]
*v	*v	*	*	*	*	*
=10	=10	=10	=10	=10	=10
8F#\)	.	8ryy	8d#\L)	.	.
.	.	.	.	.	<
8r	.	(>4g#/	8g#\ 8B#X\	.	.
4FF#/	.	.	8e\	.	.
*ped	*	*	*	*	*
.	.	8a#/	8c#\J	.	.
!LO:TX:a:t=P:pionowy łuk od 4BB do 4F#:problem	!	!	!	!	!
4F#/ 4FF#/ 4BBB/	.	8a#/	8f#\	.	.
*Xped	*	*	*	*	*
.	.	4bn/)	4d#\	.	[[
*ped	*	*	*	*	*
8DD#\L	.	.	.	.	.
8F##X\J)	.	8ryy	(>\8a# 8c#\	.	.
*Xped	*	*	*	*	*
=11	=11	=11	=11	=11	=11
*	*	*	*^	*	*
(>8GG#/L	.	4r	8a#\L	4B\	.	.
8D#\	.	.	8g#\	.	.	.
8A#X\	.	8rff	8f##X\	4ryy	.	.
8B#X\J 8G#\)	.	N(>8dd#/	8f#X\J	.	.	.
(>8C#\L	.	4dd#/	8e\)	2ryy	.	.
8G#\	.	.	(<4g#\	.	.	.
8c#\	.	4ee/	.	.	.	.
8G#\J)	.	.	8a#\	.	.	.
*	*	*	*v	*v	*	*
=12	=12	=12	=12	=12	=12
*	*	*Xtuplet	*tuplet	*	*
*ped	*	*	*	*	*
!	!	!	!LO:TUP:a	!	!
(>\8GG#L	.	12ryy	12cc#\LN)	.	.
.	.	12ryy	12b\	.	.
8D#\	.	.	.	.	.
.	.	24ryy	24r	.	.
*	*	*	*Xtuplet	*	*
.	.	N(>24dd#/ 24a#/	24a#\J)	.	.
!	!	!LO:N:vis=12.	!	!	!
8B\	.	6dd#/L	(<12a#\L	.	.
*Xped	*	*	*	*	*
.	.	.	.	.	.
.	.	.	12g#\	.	.
(>8GG#/J)	.	.	.	.	.
.	.	24ra	24ra	.	.
.	.	.	.	.	.
*ped	*	*	*	*	*
.	.	24dd#/Jk	24f#\Jk	.	.
8C#\L	.	4dd#/S	8e\L)	.	.
8G#\	.	.	(<8g#\	.	.
8e\	.	8.ff#/L	8g#\	.	.
8C#\J)	.	.	8a#\J	.	.
*Xped	*	*	*	*	*
.	.	16ee/Jk	.	.	.
!!LO:LB:g=original
=13	=13	=13	=13	=13	=13
!	!	!	!LO:TX:t=P:problem:zakonczenie luku na gorze	!	!
(8GG#\L	.	4dd#/	8cc#\L)>	.	.
8D#\	.	.	8b\	.	.
8C#\	.	8.dd#/L	8a#\	.	.
8B\J)	.	.	8g#\J	.	.
.	.	16ee#X/Jk	.	.	.
*ped	*	*	*	*	*
(>8AA#\L	.	8ee#/L	8cc#\	.	.
8c#\	.	8ff#/J	4f#\	.	.
*Xped	*	*	*	*	*
.	.	.	.	.	.
8BB\	.	16f##X/LL	.	.	.
.	.	16g#/	.	.	.
8F#\J)	.	16cc#/	8d#\	.	.
.	.	16b/JJ	.	.	.
=14	=14	=14	=14	=14	=14
*ped	*	*	*	*	*
!	!	!LO:TX:a:t=P:łuk pionowo od 8B do 8a#:problem	!	!	!
(>\8CC#'L	.	8a#/L 8f#/ 8d#/ 8B/	2ryy	.	.
8C#\	.	16dd#/L	.	.	.
.	.	16cc#/JJ	.	.	.
*Xped	*	*	*	*	*
8B\ 8e#>\	.	16a#/LL	.	.	.
.	.	16cc#/	.	.	.
8C#\J)	.	16g#/ 16d#/ 16B</	.	.	.
.	.	16cc#/JJ	.	.	.
(>8FF#\L	.	4f#/	(>8d#\L 8B\	.	.
8F#\	.	.	8c#\J 8A#\)N)	.	.
8D#\	.	(>8a#/L 8f#/ 8c#/	4ryy	.	.
8G#\J)	.	8b#X/J 8f#/ 8d#/	.	.	.
=15	=15	=15	=15	=15	=15
*ped	*	*	*	*	*
(>8CC#/L	.	8cc#/L	8e\	.	.
8G#\	.	8g#/J)	4g#\	.	.
.	.	(>8qg#/	.	.	.
8e\	.	[>4gg#/)	.	.	.
*Xped	*	*	*	*	*
8G#\J	.	.	8g#\	.	.
*ped	*	*	*	*	*
8GG#\L	.	(8gg#/L]	8f#\L	.	.
8G#\	.	8dd#/	8g#\	.	.
8f#\ 8d#\	.	8.ee/	8b#X\	.	.
*Xped	*	*	*	*	*
8G#\J)	.	.	8g#\J	.	.
.	.	16ff#/J	.	.	.
!!LO:PB:g=original
=16	=16	=16	=16	=16	=16
*ped	*	*	*	*	*
!	!	!LO:TX:i:b:t=sempre legato	!	!	!
8C#\L	.	4ee/	8cc#\L	.	.
*Xped	*	*	*	*	*
8G#\	.	.	8g#\	.	.
*ped	*	*	*	*	*
8B#X\ 8GG#\	.	8dd#/L	8f#\	.	.
*Xped	*	*	*	*	*
8G#\J	.	8ee/J	8g#\J	.	.
*ped	*	*	*	*	*
8c#\L 8C#\	.	4cc#/	8e\L	.	.
*Xped	*	*	*	*	*
8G#\	.	.	8g#\	.	.
*ped	*	*	*	*	*
8AA#\	.	4ee/	8cc#\	.	.
*Xped	*	*	*	*	*
8c#\J	.	.	8g#\J)	.	.
=17	=17	=17	=17	=17	=17
*ped	*	*	*	*	*
8DD#\L	.	(>4.dd#/	8c#\L	.	.
8D#\	.	.	8d#\	.	.
8A#\	.	.	8f##X\	.	.
*Xped	*	*	*	*	*
8D#\J	.	8cc#/	8d#\J	.	.
8GG#\L	.	8b/L	8g#\L	.	.
8D#\	.	8a#/	8d#\	.	.
8G#\	.	8g#/	8B\	.	.
8D#\J	.	8b/J	8d#\J	.	.
=18	=18	=18	=18	=18	=18
*ped	*	*	*	*	*
8DD#\L	.	8a#/L	8f##X\L	.	.
8D#\	.	8cc#/	8d#\	.	.
8F##X\	.	8a#/	8c#\	.	.
*Xped	*	*	*	*	*
8D#\J	.	8b/J	8d#\J	.	.
*ped	*	*	*	*	*
8DD#\L	.	4g#/	8g#\L	.	.
8C##X\	.	.	8e\	.	.
8G#\	.	[>4b/	8B\	.	.
*Xped	*	*	*	*	*
8C##\J	.	.	8e\J	.	.
=19	=19	=19	=19	=19	=19
*ped	*	*	*	*	*
8DD#\L	.	8b/L]	8f##X\L	.	.
8D#\	.	8a#/	8d#\	.	.
8F##X\	.	8dd#/	8c#\	.	.
*Xped	*	*	*	*	*
8D#\J	.	8cc#/J	8d#\J	.	.
8GG#\L	.	8b/L 8g#/L	2ryy	.	.
8D#\	.	8a#/ 8d#/	.	.	.
8G#\	.	8g#/ 8B/	.	.	.
8E#X\J	.	8b/J 8d#/J	.	.	.
!!LO:LB:g=original
=20	=20	=20	=20	=20	=20
*ped	*	*	*	*	*
8DD#\L	.	8a#/L 8f#/L	2ryy	.	.
8D#\	.	8g#/ 8d#/	.	.	.
8F#\	.	8a#/ 8A#/	.	.	.
*Xped	*	*	*	*	*
8D#\J	.	8b/J 8d#/J	.	.	.
*ped	*	*	*	*	*
8DD#\L	.	4g#/	8e#X\L	.	.
8D#\	.	.	8d#\	.	.
8G#\	.	4b/	8B\	.	.
*Xped	*	*	*	*	*
8D#\J	.	.	8d#\J	.	.
*	*	*v	*v	*	*
=21	=21	=21	=21	=21
*^	*	*	*	*
*	*^	*	*	*	*
*ped	*	*	*	*	*	*
2ryy	8DD#/	2ryy	.	8a#/ 8f#/ 8A#</)	.	.
.	4A#\^>	.	.	8r	.	.
.	.	.	.	(>4aa#\	.	>
*Xped	*	*	*	*	*	*
.	8A#\	.	.	.	.	.
*ped	*	*	*	*	*	*
(2c##X\ 2D#\	8rF	2E#/	.	4aa#\	.	.
.	4A#\	.	.	.	.	.
.	.	.	.	16gg#\LL	.	.
.	.	.	.	16ff#\	.	.
*Xped	*	*	*	*	*	*
.	8A#\)	.	.	16ee#X\	.	.
.	.	.	.	16gg#\JJ	.	]]
*	*v	*v	*	*	*	*
=22	=22	=22	=22	=22	=22
(2d#\ 2F#\ 2D#\	8rA	.	16ff#\LL	.	.
.	.	.	16ee#X\	.	.
.	4A#\	.	16dd#\	.	.
.	.	.	16ff#\JJ	.	.
.	.	.	16ee#\LL	.	.
.	.	.	16dd#\	.	.
.	8A#\	.	16cc#\	.	.
.	.	.	16ee#\JJ	.	.
2d#\ 2G#\ 2D#\	8rA	.	16dd#\LL	.	.
.	.	.	16cc#\	.	.
.	4B\	.	16b\	.	.
.	.	.	16a#/JJ	.	.
.	.	.	16b\LL	.	.
.	.	.	16cc#\	.	.
.	8B\)	.	16dd#\	.	.
.	.	.	16g#/JJ	.	.
!!LO:LB:g=original
=23	=23	=23	=23	=23	=23
*	*^	*	*	*	*
*ped	*	*	*	*	*	*
\2d# 2F#\ 2D#\	8rA	2ryy	.	8a#\)	.	.
.	4A#\	.	.	8r	.	.
.	.	.	.	.	.	.
.	.	.	.	(>[>4aa#\	.	>
.	8A#\	.	.	.	.	.
*Xped	*	*	*	*	*	*
.	.	.	.	.	.	.
2c##X\ 2D#\	8rF	2E#/	.	16aa#\KL]	.	.
.	.	.	.	8bb\	.	.
.	4A#\	.	.	.	.	.
.	.	.	.	16aa#\Jk	.	.
*	*	*	*	*tuplet	*	*
!	!	!	!	!LO:TUP:a	!	!
.	.	.	.	20gg#\LL	.	.
.	.	.	.	20ff#\	.	.
.	.	.	.	20gg#\	.	.
.	8A#\	.	.	.	.	.
.	.	.	.	20aa#\	.	.
.	.	.	.	20ee#X\JJ	.	.
*	*v	*v	*	*	*	*
=24	=24	=24	=24	=24	=24
*	*	*	*	*	*^
2d#\ 2F#\ 2D#\	8rA	.	16gg#\LL	.	.	.
.	.	.	16ff#\	.	.	.
.	4A#\	.	16gg#\	.	.	.
.	.	.	16dd#\JJ	.	.	.
.	.	.	16ff#\LL	.	.	>
.	.	.	16ee#X\	.	.	.
.	8A#\	.	16ff#\	.	.	.
.	.	.	16cc#\JJ	.	.	.
2d#\ 2G#\ 2D#\	8rA	.	16ee#\LL	.	.	.
.	.	.	16dd#\	.	]]	.
.	4B\	.	16ee#\	.	.	.
.	.	.	16b\JJ	.	.	.
.	.	.	16dd#\LL	.	.	.
.	.	.	16a#/	.	.	.
.	8B\	.	16dd#\	.	.	.
.	.	.	16g#/JJ	.	.	.
*	*	*	*	*	*v	*v
!!LO:LB:g=original
=25	=25	=25	=25	=25	=25
*ped	*	*	*	*	*
2d#\ 2F#\ 2D#\	8rA	.	4a#\)	.	.
.	4A#\	.	.	.	.
.	.	.	4r	.	.
.	8A#\	.	.	.	.
*Xped	*	*	*	*	*
.	.	.	.	.	.
2d#\ 2G#\ 2D#\	8rA	.	8r	.	pp
.	4B\	.	(>16ff#\LL	.	.
.	.	.	.	.	.
.	.	.	16ee#X\JJ	.	.
.	.	.	16dd#\LL	.	.
.	.	.	16a#\	.	.
.	8B\	.	16dd#\	.	.
.	.	.	16g#\JJ	.	.
=26	=26	=26	=26	=26	=26
*ped	*	*	*	*	*
2d#\ 2F#\ 2D#\	8rA	.	4a#/)	.	.
.	4A#\	.	.	.	.
.	.	.	4r	.	.
*Xped	*	*	*	*	*
.	8A#\)	.	.	.	f
*	*	*	*Xtuplet	*	*
*	*	*	*cue	*	*
*	*	*	*rscale:8	*	*
*ped	*	*	*	*	*
8d#/L	2G#\ 2D#\	.	82b/L	.	.
.	.	.	82cc#/	.	.
.	.	.	82dd#/	.	.
.	.	.	82ee#/	.	.
.	.	.	82ff#/	.	.
.	.	.	82gg#/	.	.
*	*	*	*8va	*	*
.	.	.	82aa#/	.	.
.	.	.	82bb/	.	<
.	.	.	82ccc#/	.	.
.	.	.	82ddd#/	.	.
.	.	.	82eee#/	.	.
!LO:TX:i:b:t=rall&colon;	!	!	!	!	!
!LO:SIC:v:s=8e#	!	!	!	!	!
8e/	.	.	.	.	.
.	.	.	82fff#/	.	.
.	.	.	82ggg#/	.	.
.	.	.	82aaa#/	.	.
.	.	.	82bbb/	.	.
.	.	.	82cccc#/	.	.
.	.	.	82eeee#/	.	.
.	.	.	82dddd#/	.	.
.	.	.	82cccc#/	.	.
.	.	.	82bbb/	.	.
.	.	.	82aaa#/	.	.
8f#/	.	.	.	.	.
.	.	.	82ggg#/	.	.
.	.	.	82fff#/	.	.
.	.	.	82eee#/	.	.
.	.	.	82ddd#/	.	.
.	.	.	82ccc#/	.	.
.	.	.	82bb/	.	.
.	.	.	82aa#/	.	.
*	*	*	*X8va	*	*
!	!	!	!LO:TX:t=loco.	!	!
.	.	.	82gg#/	.	.
.	.	.	82ff#/	.	.
.	.	.	82ee#/	.	.
8B/J	.	.	.	.	.
.	.	.	82dd#/	.	.
.	.	.	82cc#/	.	.
.	.	.	82b/	.	.
.	.	.	82a#/	.	.
.	.	.	82g#/	.	.
.	.	.	82f#/	.	.
.	.	.	82e#/	.	.
.	.	.	82d#/	.	.
.	.	.	82c#/	.	.
.	.	.	82B/J	.	[[
*	*	*	*rscale:1	*	*
*	*	*	*Xcue	*	*
*v	*v	*	*	*	*
=27	=27	=27	=27	=27
*ped	*	*	*	*
!LO:TX:t=P:łuk pionowo od 2DD# do 2.A#:problem	!	!	!	!
!	!	!	!	!LO:DY:t=f&colon;p
2F#\ 2AA#\ 2DD#\	.	2.A#</	.	fp
2r	.	.	.	.
*	*	*tuplet	*	*
!	!	!LO:TUP:b	!	!
.	.	(<12d#/L	.	.
.	.	12.f#/	.	.
.	.	24dd#\Jk	.	.
*	*	*tuplet	*	*
!!LO:PB:g=original
=28	=28	=28	=28	=28
!	!	!LO:TX:t=P:problem:koniec luku na gorze	!	!
1rF	.	[>2dd#\	.	>
.	.	4dd#\]	.	.
*Xped	*	*	*	*
.	.	8cc#\L	.	.
.	.	[>8b\J	.	.
=29	=29	=29	=29	=29
*^	*	*^	*	*
*ped	*	*	*	*	*	*
8ryy	(>8FF#\L	.	8b/L]	2e\	.	.
4.F#/	8F#\	.	8a#/	.	.	.
.	8B\	.	8g#/)>	.	.	.
*Xped	*	*	*	*	*	*
.	8A#\J	.	(8f#/J	.	.	.
!	!	!	!LO:TX:a:t=P:łuk pionowo od 4d# do 4dd#:problem	!	!	!
2ryy	8BB\L	.	4dd#/	4d#\	.	]
.	8F#\	.	.	.	.	.
.	8B\	.	8cc#/L	4d#\	.	.
.	8F#\J	.	8b/J	.	.	.
=30	=30	=30	=30	=30	=30	=30
*^	*	*	*	*	*	*
8ryy	4c#/	8c#\L	.	8b/L	4e\	.	.
4.F#/	.	8F#\	.	8a#/	.	.	.
.	.	.	.	(8qqa#/	.	.	.
.	2.ryy	8B\	.	8g#/	4e\)	.	.
.	.	8A#\J)	.	8f#/J	.	.	<
!	!	!	!	!LO:TX:a:t=P:łuk pionowo od 2d# do 4ff#:problem	!	!	!
*ped	*	*	*	*	*	*	*
2ryy	.	(<8BBB/L	.	4ff#/	2an\ 2d#\	.	.
.	.	8F#/	.	.	.	.	.
.	.	8B/	.	4ff#/	.	.	.
*Xped	*	*	*	*	*	*	*
.	.	8B#X/J)	.	.	.	.	.
.	.	.	.	.	.	.	.
*	*v	*v	*	*	*	*	*
*v	*v	*	*	*	*	*
=31	=31	=31	=31	=31	=31
*^	*	*	*	*	*
*	*^	*	*	*	*	*
*ped	*	*	*	*	*	*	*
!	!	!	!	!	!LO:TX:a:t=P:łuk pionowo od 8d# do 4ff#:problem	!	!
8d#>\L	4ryy	2ryy	.	4ryy	4ff#/ 4an/	.	[
8BB#X\	.	.	.	.	.	.	.
*Xped	*	*	*	*	*	*	*
(8C#\	8ryy	.	.	8ee/L 8g#/ 8e/	4ryy	.	.
8D#\J	4Bn/	.	.	8dd#/J 8f#/	.	.	.
8G#\L	.	4G#/	.	8dd#/L	4e\	.	.
8B\	4B/	.	.	8cc#/	.	.	.
8E\	.	4ryy	.	8ee/	4g#\	.	.
8E#X\J 8B\)	8ryy	.	.	8dd#/J	.	.	.
*	*v	*v	*	*	*	*	*
!!LO:LB:g=original
=32	=	=32	=32	=32	=32	=32
*	*^	*	*	*^	*	*
(>4B/	2ryy	[<\2F#	.	4dd#/	8g#/	2en\	.	>
.	.	.	.	.	4f#/	.	.	.
8A#/L	.	.	.	8.cc#/L	.	.	.	.
8d#/J	.	.	.	.	8ryy	.	.	.
.	.	.	.	16b/Jk	.	.	.	.
4c#/	8ryy	8F#\L]	.	8b/L	2ryy	4f#\ 4e\	.	.
.	4.F#/	8F#\	.	8a#/	.	.	.	.
!	!	!	!	!LO:TX:a:t=P:łuk pionowo od 4e do 12g#:problem	!	!	!	!
!	!	!	!	!LO:TX:a:t=P:brak klamry:problem	!	!	!	!
4ryy	.	8B\	.	12g#/	.	4e\	.	.
.	.	.	.	12a#/	.	.	.	.
.	.	8A#\J)	.	.	.	.	.	.
.	.	.	.	12f#/J	.	.	.	]]
*	*v	*v	*	*	*v	*v	*	*
=33	=33	=33	=33	=33	=33	=33
*ped	*	*	*	*	*	*
!LO:TX:a:t=P:mixed beam:problem	!	!	!	!	!	!
!	!	!	!	!LO:TX:a:t=P:łuk pionowo od 4d# do 4dd#:problem	!	!
2ryy	(>/8BBBL	.	4dd#/)	4d#\	.	.
.	8F#\	.	.	.	.	.
.	8B\	.	(8cc#/L	4d#\	.	.
.	8F#\J	.	8b/J	.	.	.
*Xped	*	*	*	*	*	*
4c#/	8c#\L	.	16b/LL	4e\	.	.
.	.	.	16a#/	.	.	.
.	8F#\	.	16dd#/	.	.	.
.	.	.	16cc#/JJ	.	.	.
4ryy	8B\	.	16g#/LL	4e\	.	.
.	.	.	16a#/	.	.	.
.	8A#\J)	.	16g#/	.	.	.
.	.	.	16f#/JJ	.	.	.
*v	*v	*	*	*	*	*
*	*	*v	*v	*	*
=34	=34	=34	=34	=34
.	.	(8qd#/	.	.
*ped	*	*	*	*
(<8BBB/L	.	4ff#/)	.	.
8BB/	.	.	.	.
8F#\	.	4ff#/	.	.
8B\J)	.	.	.	.
2ryy	.	2ff#\;> 2an\ 2d#\)	.	.
.	.	.	.	.
=35	=35	=35	=35	=35
*^	*	*^	*	*
!	!	!	!LO:TX:a:t=P:łuk pionowo od 4d# do 4ff#:problem	!	!	!
2ryy	8r	.	(>\4ff# 4an\ 4d#\	2ryy	.	>
.	(>8BB#X\L	.	.	.	.	.
.	8c#\ 8C#\	.	8ee\L 8g#\ 8e\	.	.	.
.	8B\J 8D#\	.	8dd#\J 8g#\	.	.	.
4.B/	4E\	.	8dd#/L	4g#\	.	.
.	.	.	8cc#/	.	.	.
.	4D#\	.	8.dd#/	4f#\	.	.
8G#/	.	.	.	.	.	.
.	.	.	16b/Jk	.	.	]]
*v	*v	*	*	*	*	*
!!LO:LB:g=original
=36	=36	=36	=36	=36	=36
4.G#\ 4.C#\	.	8b/L	2e\	.	.
.	.	8a#/	.	.	.
.	.	8b/	.	.	.
8B\ 8C##X\	.	8g#/J	.	.	.
4D#\)	.	4d#/ 4B#/	2ryy	.	<
*ped	*	*	*	*	*
!	!	!LO:TX:a:t=P:problem:luk do kreski taktowej	!	!	!
(<4DD#\	.	4cc#X/ 4f##X/ 4A#</)	.	.	.
*	*	*v	*v	*	*
=37	=37	=37	=37	=37
*k[b-e-a-d-]	*	*k[b-e-a-d-]	*	*
!	!	!LO:TX:a:B:t=Sostenuto.	!	!
8EE-/)	.	(>2cc\	.	[
*Xped	*	*	*	*
.	.	.	.	.
*ped	*	*	*	*
(>4d-\ 4G\	.	.	.	.
*Xped	*	*	*	*
4d-\ 4G\)	.	.	.	.
.	.	4..b-\	.	.
*ped	*	*	*	*
4E-\^>	.	.	.	.
(<8EE-/	.	.	.	.
*Xped	*	*	*	*
.	.	16cc\	.	.
=38	=38	=38	=38	=38
*ped	*	*	*	*
8AAA-/)	.	2a-\)	.	.
(>4c\ 4A-\ 4E-\	.	.	.	.
4c\ 4A-\ 4E-\	.	.	.	.
*Xped	*	*	*	*
.	.	(>\4..a-	.	.
*ped	*	*	*	*
4c\ 4A-\ 4En\)	.	.	.	.
(<8AA-/	.	.	.	.
*Xped	*	*	*	*
.	.	16g\)	.	.
=39	=39	=39	=39	=39
*ped	*	*	*	*
8AAA-/)	.	2g/	.	.
(>4d-\ 4B-\ 4F\	.	.	.	.
*Xped	*	*	*	*
8d-\ 8B-\ 8F\)	.	.	.	.
8r	.	(8.f/L	.	.
*ped	*	*	*	*
!LO:TX:t=P:problem:diminuendolike accent	!	!	!	!
(<4AA-X/^>	.	.	.	.
.	.	16an/k	.	.
.	.	8b-\	.	.
8DD-/)	.	8cc\J	.	.
*Xped	*	*	*	*
!!LO:LB:g=original
=40	=40	=40	=40	=40
*ped	*	*	*	*
!	!	!LO:TX:t=P:problem:koniec łuku na górze	!	!
8AAA-/	.	2dd-\	.	.
(>4d-\ 4B-\ 4F\	.	.	.	.
8d-\ 8B-\ 8F\)	.	.	.	>
8r	.	2ff\	.	.
(<4AA-/^>	.	.	.	]
*Xped	*	*	*	*
8DD-/)	.	.	.	.
=41	=41	=41	=41	=41
*ped	*	*	*	*
8GGG/	.	2e-/)>	.	.
(>4d-\ 4B-\ 4E-\	.	.	.	.
4d-\ 4B-\ 4E-\)	.	.	.	.
.	.	(>8dd-\L	.	.
4E-\^>	.	8cc\	.	.
.	.	8b-\	.	.
*Xped	*	*	*	*
[8E-\	.	8cc\J	.	.
=42	=42	=42	=42	=42
*ped	*	*	*	*
(>8E-/] 8AA-/	.	2a-/	.	.
4c\ 4A-\ 4F\	.	.	.	.
4c\ 4A-\ 4E-\	.	.	.	>
.	.	2f/	.	.
4c\ 4A-\ 4Dn\	.	.	.	]
[>8c\ [>8A-\ [>8E-\)	.	.	.	.
=43	=43	=43	=43	=43
*^	*	*	*	*
2ryy	8c\] 8A-\] 8E-\]	.	2e-/)	.	.
.	.	.	.	.	.
*ped	*	*	*	*	*
.	4EE-/	.	.	.	<
.	8c\ 8E-\	.	.	.	.
*Xped	*	*	*	*	*
!LO:TX:t=P:problem:brak poczatku luku	!	!	!	!	!
(2dn/ 2B-/	8E-\	.	(>/8a-L	.	.
*ped	*	*	*	*	*
.	4E-\^>	.	8b-/	.	.
.	.	.	8gg/	.	.
.	8E-\	.	[>8ff/J	.	.
*Xped	*	*	*	*	*
.	.	.	.	.	[
!!LO:LB:g=original
=44	=44	=44	=44	=44	=44
*ped	*	*	*	*	*
2e-/ 2B-/	8E-\	.	8ff/L]	.	.
.	4E-\^>	.	8g/J	.	>
.	.	.	2ff/	.	.
.	8E-\	.	.	.	.
2ryy	8d-X\L 8G\ 8E-\	.	.	.	.
*Xped	*	*	*	*	*
.	8E-\J	.	.	.	.
.	8r	.	8ee-/L	.	.
.	(<8EE-/	.	8dd-X\J	.	]
*v	*v	*	*	*	*
=45	=45	=45	=45	=45
*ped	*	*	*	*
8EEn/))	.	[>2cc/	.	.
(4B-\ 4G\ 4C\	.	.	.	.
8B-\ 8G\ 8C\	.	.	.	.
*Xped	*	*	*	*
!	!	!LO:TX:b:t=cres&colon;:problem:dynamics with extention lines	!	!LO:HP:b:t=cres:
8B-\ 8F\ 8C\	.	8cc/L]	.	<
4B-\ 4F\ 4C\	.	8dd-\	.	.
.	.	8f/	.	.
(<8FF/)	.	8dd-\J	.	.
=46	=46	=46	=46	=46
*	*	*	*	*^
*ped	*	*	*	*	*
(>8GG/)	.	8en/L	.	.	.
4B-\ 4G\ 4C\	.	8dd-/J	.	.	.
.	.	4cc/	.	.	.
*Xped	*	*	*	*	*
8B-\ 8G\ 8C\	.	.	.	.	.
*ped	*	*	*	*	*
8An\ 8G\ 8C\	.	8e-X/L	.	.	.
.	.	.	.	.	<
4A\ 4G\ 4C\)	.	8an/	.	.	.
.	.	8cc\	.	.	.
*Xped	*	*	*	*	*
(<8GG/	.	8ee-\J	.	.	.
=47	=47	=47	=47	=47	=47
*ped	*	*	*	*	*
8FF#X/)	.	[>2ddn/)	.	.	.
.	.	.	.	.	[
4c\ 4An\ 4Dn\	.	.	.	.	.
*Xped	*	*	*	*	*
(8c\ 8A\ 8D\	.	.	.	.	.
*ped	*	*	*	*	*
8c\ 8G\ 8D\	.	(>8dd/L]	.	.	.
4c\ 4G\ 4D\)	.	8ee-/	.	.	.
.	.	8g/	.	.	.
(<8GG/	.	8ee-/J	.	.	.
*Xped	*	*	*	*	*
.	.	.	.	.	.
!!LO:PB:g=original
=48	=48	=48	=48	=48	=48
*ped	*	*	*	*	*
(>8AAn/)	.	8f#X/L	.	.	.
4c\ 4An\ 4Dn\	.	8ee-/J	.	.	.
.	.	4ddn/	.	.	.
*Xped	*	*	*	*	*
8c\ 8A\ 8D\	.	.	.	.	.
*ped	*	*	*	*	*
8Bn\ 8A\ 8D\	.	8fn/L	.	.	<
4B\ 4A\ 4D\	.	8bn/	.	.	.
.	.	8dd/	.	.	.
(<8AA/)	.	8ff/J)	.	.	[[
*Xped	*	*	*	*	*
.	.	.	.	.	.
=49	=49	=49	=49	=49	=49
*ped	*	*	*	*	*
8GG#X/)	.	[>2een\	.	.	>
4dn\ 4En\	.	.	.	.	.
.	.	.	.	.	.
.	.	.	.	.	.
*Xped	*	*	*	*	*
.	.	.	.	.	.
8d\ 8E\	.	.	.	.	.
*ped	*	*	*	*	*
8AAn/	.	(8ee\L]	.	[>	.
4c\ 4E\	.	8ffn\	.	.	.
.	.	8cc\	.	.	.
*Xped	*	*	*	*	*
8c\ 8E\	.	8ddn\J	.	.	.
=50	=50	=50	=50	=50	=50
*ped	*	*	*	*	*
8GG#X/	.	4een\	.	<	]
4en\ 4Bn\ 4En\	.	.	.	.	.
.	.	4bn\	.	.	.
*Xped	*	*	*	*	*
8e\ 8B\ 8E\	.	.	.	.	.
*ped	*	*	*	*	*
8GGn/	.	2cc#X\tt>	.	.	.
4e\ 4B-X\ 4E\	.	.	.	.	.
*Xped	*	*	*	*	*
8e\ 8B-\ 8E\	.	.	.	.	.
.	.	16qb#X/LL	.	.	.
.	.	16qcc#/JJ	.	[	.
*	*	*	*	*v	*v
=51	=51	=51	=51	=51
*ped	*	*	*	*
!	!	!LO:TX:a:i:t=dolciss.	!	!
8FF/	.	8ddn\L	.	.
(>4f\ 4B-\ 4F\	.	8ee-\	.	.
.	.	8gg\	.	.
*Xped	*	*	*	*
8f\ 8B-\ 8F\	.	8ff\J	.	.
*ped	*	*	*	*
8e-\ 8An\ 8F\	.	8dd\L	.	.
4e-\ 4A\ 4F\	.	8ee-\	.	.
.	.	8b-\	.	.
*Xped	*	*	*	*
8e-\ 8A\ 8F\)	.	8cc\J	.	.
!!LO:LB:g=original
=52	=52	=52	=52	=52
*ped	*	*	*	*
8FF/	.	4ddn\	.	.
(>4dn\ 4An\ 4F\	.	.	.	.
.	.	4an\	.	.
*Xped	*	*	*	*
8d\ 8A\ 8F\	.	.	.	.
*ped	*	*	*	*
8d\ 8A-X\ 8F\	.	(4bn\TT	.	.
4d\ 4A-\ 4F\	.	.	.	.
.	.	4cc-X\TT)	.	.
*Xped	*	*	*	*
8d\ 8A-\ 8F-X\)	.	.	.	.
.	.	16qb-X/LL	.	.
.	.	16qcc-/JJ	.	[[
=53	=53	=53	=53	=53
*^	*	*	*	*
*ped	*	*	*	*	*
2ryy	(8EE-'/	.	2ccn\	.	f
.	4e-\ 4A-\ 4E-\	.	.	.	.
*Xped	*	*	*	*	*
.	8dn\ 8A-\ 8E-\	.	.	.	.
4d-X/	8A-\L 8E-\	.	4..b-\	.	.
.	8G\J 8En\	.	.	.	.
4ryy	8r	.	.	.	.
.	(<8EEn/)	.	.	.	.
.	.	.	16cc\	.	.
*v	*v	*	*	*	*
=54	=54	=54	=54	=54
*ped	*	*	*	*
(>8FF/')	.	8b-\L	.	.
4c\ 4F\ 4C\	.	8an\J	.	.
.	.	4a-X\	.	.
*Xped	*	*	*	*
8Bn\ 8F\ 8C\	.	.	.	.
8B-\ 8F\L 8C\	.	8g\L	.	.
8En\J) 8C\	.	8b-\	.	.
8r	.	8a-\	.	.
(<8CC/	.	8g-X\J	.	.
=55	=55	=55	=55	=55
*ped	*	*	*	*
(>8DD-'/)	.	2en/	.	.
4A-\ 4F\	.	.	.	.
.	.	.	.	<
*Xped	*	*	*	*
8e-X\ 8An\ 8F\	.	.	.	.
8d-\ 8B-\ 8F\	.	8f/L	.	.
(<4DD-/^>)	.	8an\	.	.
.	.	8.b-\	.	.
8CC/)	.	.	.	.
.	.	16cc\Jk	.	[
!!LO:LB:g=original
=56	=56	=56	=56	=56
*ped	*	*	*	*
(8BBB-'/	.	2dd-\)	.	.
4F\	.	.	.	.
*Xped	*	*	*	*
8c\ 8F\ 8D-\	.	.	.	.
8B-\ 8F\ 8D-\	.	(2ff\	.	>
(<4BBB-/^>)	.	.	.	.
.	.	.	.	.
8AAA-/	.	.	.	.
=57	=57	=57	=57	=57
*ped	*	*	*	*
(8GGG'/)	.	2e-/	.	]
4d-\ 4B-\ 4E-\	.	.	.	.
4d-\ 4B-\ 4E-\	.	.	.	p
.	.	8dd-\L	.	.
4E-\^>	.	8cc\	.	.
.	.	8b-\	.	.
*Xped	*	*	*	*
8E-\	.	8cc\J	.	.
=58	=58	=58	=58	=58
*ped	*	*	*	*
(>8AA-/)	.	2a-/	.	.
4c\ 4A-\ 4E-\	.	.	.	.
*Xped	*	*	*	*
8c\ 8A-\ 8E-\)	.	.	.	.
8r	.	2f/	.	.
(<4CC/	.	.	.	.
8DD-/	.	.	.	.
=59	=59	=59	=59	=59
*ped	*	*	*	*
8EE-/)	.	2e-/	.	.
!	!	!LO:TX:i:b:t=dim_:problem:dynamics with extention lines	!	!LO:HP:b:t=dim
4c\ 4A-\ 4E-\	.	.	.	>
*Xped	*	*	*	*
8c\ 8A-\ 8F\	.	.	.	.
*ped	*	*	*	*
8d-\ 8G\ 8E-\	.	8dd-\L	.	.
4E-\^>	.	8cc\	.	.
.	.	8b-\	.	.
*Xped	*	*	*	*
8E-\	.	8cc\J	.	]
!!LO:LB:g=original
=60	=60	=60	=60	=60
*^	*	*	*	*
*ped	*	*	*	*	*
(2c/ 2A-/	8E-\	.	2a-\	.	<
.	4E-\^>	.	.	.	.
.	.	.	.	.	.
*Xped	*	*	*	*	*
.	8F\	.	.	.	.
*ped	*	*	*	*	*
2c-X/ 2A-/	8E-\	.	2ddn\	.	.
.	4E-\^>	.	.	.	.
.	8E-\)	.	.	.	[
*Xped	*	*	*	*	*
*v	*v	*	*	*	*
=61	=61	=61	=61	=61
*ped	*	*	*	*
!	!	!	!	!LO:DY:a=1
(>8EE-\L	.	[>2ddn\	.	<
8BB-\	.	.	.	.
8G\	.	.	.	.
*Xped	*	*	*	*
8c-X\J	.	.	.	.
*ped	*	*	*	*
8B-\L	.	8dd\]	.	.
8G\J	.	4ee-\	.	.
4e-\)	.	.	.	.
*Xped	*	*	*	*
.	.	.	.	.
.	.	8ee-\)	.	[[
=62	=62	=62	=62	=62
*	*	*^	*	*^
*ped	*	*	*	*	*	*
!	!	!LO:TX:t=P:problem:podwójnie wyświetlone pp oraz dłuższe crescendo powinno być pod krótszym	!	!	!	!
(>8EE-\L	.	(2ff/	4ee-\	.	pp<	<
8AA-\	.	.	.	.	.	.
8F\	.	.	2dd-X\	.	.	.
*Xped	*	*	*	*	*	*
8B-\J	.	.	.	.	.	.
*ped	*	*	*	*	*	*
8A-\L	.	4.bb-/	.	.	.	.
8F\J	.	.	.	.	.	.
4a->\ 4d->\)	.	.	4ryy	[	.	[
*Xped	*	*	*	*	*	*
.	.	8bb-/	.	.	[	.
*	*	*v	*v	*	*	*
=63	=63	=63	=63	=63	=63
!LO:TX:b:t=P:graficzne oznacz. cresc. od 8EE- do 4g 4B- pod dolną pięciolinią:problem	!	!	!	!	!
*ped	*	*	*	*	*
!	!	!LO:TX:t=P:problem:crescendo nad lewą ręką, diminuendo pod prawą	!	!	!
(>8EE-\L	.	8ccc/L	.	>	<
8BB-\	.	8bb-/	.	.	.
8E-\	.	8gg/	.	.	.
*Xped	*	*	*	*	*
8F\J	.	8ee-/J	.	.	.
*ped	*	*	*	*	*
8G\L	.	4.dd-/	.	.	.
8E-\J	.	.	.	.	.
4g>\ 4B-\)	.	.	.	.	.
*Xped	*	*	*	*	*
.	.	8dd-/	.	]	[
*	*	*	*	*v	*v
!!LO:LB:g=original
=64	=64	=64	=64	=64
!	!	!	!	!LO:HP:b
*ped	*	*	*	*
(>8EE-\L	.	4dd-/	.	<
8AA-\	.	.	.	.
8E-\	.	4.cc/)	.	.
8A-\J	.	.	.	.
8G-X\L	.	.	.	.
8E-\J	.	(4aa-/	.	[[
*Xped	*	*	*	*
4g-X>\ 4c\ 4G-\)	.	.	.	.
.	.	8aa-/	.	<
=65	=65	=65	=65	=65
*ped	*	*	*	*
!	!	!	!	!LO:HP:b
(>8EE-\L	.	4aa-/	.	.
8AA-/	.	.	.	.
8E-\	.	2cc-X/	.	.
*Xped	*	*	*	*
8F\J	.	.	.	.
*ped	*	*	*	*
8G-X\L	.	.	.	.
8E-\J	.	.	.	.
4g-X>\ 4c-X\ 4G-\)	.	4cc-/	.	[
*Xped	*	*	*	*
.	.	.	.	.
=66	=66	=66	=66	=66
8r	.	2cc-X/	.	.
!	!	!	!	!LO:HP:b
*ped	*	*	*	*
(>8EE-\L	.	.	.	.
8E-\	.	.	.	.
8A-\J	.	.	.	.
8G-X\L	.	4.b-/	.	>
8E-\J	.	.	.	.
*Xped	*	*	*	*
8dn\ 8B-\ 8F\)	.	.	.	.
8r	.	8f/)	.	.
=67	=67	=67	=67	=67
*	*	*^	*	*^
!LO:N:vis=1	!	!	!	!	!	!
*ped	*	*	*	*	*	*
!	!	!LO:TX:a:t=P:łuk pionowo od 2E- do 2g:problem	!	!	!	!
2B-\ 2E-\	.	4rff	1gn\	.	]<	.
.	.	8rff	.	.	.	.
.	.	16rff	.	.	.	.
!	!	!	!	!	!	!LO:HP:t=cres&colon;
.	.	16ee-/	.	.	.	<
2r;>	.	2ee-tt/;>	.	.	[	.
*	*	*v	*v	*	*	*
!!LO:PB:g=original
=68	=68	=68	=68	=68	=68
*k[f#c#g#d#a#]	*	*k[f#c#g#d#a#]	*	*	*
*^	*	*^	*	*	*
2.f#>\	1rF	.	2.dd#/tt	1f#\	.	>	>
.	.	.	.	.	.	.	.
.	.	.	8qcc#/ttt	.	.	.	.
8e>\L	.	.	8cc#/Lttt	.	.	.	.
.	.	.	8qb/ttt	.	.	.	.
8d#>\J	.	.	8b/Jttt	.	.	.	]
*	*	*	*	*	*	*v	*v
=69	=69	=69	=69	=69	=69	=69
*	*^	*	*	*	*	*
!	!	!	!	!LO:TX:B:t=Poco piu lento.	!	!	!
!	!	!	!	!LO:TX:b:i:t=dolce.	!	!	!
!	!	!LO:TX:a:t=P:mixed beam:problem	!	!	!	!	!
4ryy	8ryy	(>8FFF#/L	.	8b\Lttt	4e\	.	.
*ped	*	*	*	*	*	*	*
.	.	.	.	.	.	.	.
*Xped	*	*	*	*	*	*	*
.	.	.	.	8qa#/ttt	.	.	.
.	4.F#/	8F#\	.	8a#/ttt	.	.	.
*ped	*	*	*	*	*	*	*
.	.	.	.	.	.	.	.
.	.	.	.	8qg#/ttt	.	.	.
*Xped	*	*	*	*	*	*	*
4e/	.	8e\ 8B\	.	8g#/ttt	2.ryy	.	.
*ped	*	*	*	*	*	*	*
.	.	.	.	.	.	.	.
.	.	.	.	8qf#/ttt	.	.	.
*Xped	*	*	*	*	*	*	*
.	.	8A#\J)	.	8f#/J	.	.	.
*ped	*	*	*	*	*	*	*
.	.	.	.	(<8qqd#/L	.	.	.
.	.	.	.	8qdd#/J)	.	.	.
2ryy	2ryy	(>8BBB/L	.	4dd#\tt	.	.	.
*Xped	*	*	*	*	*	*	*
.	.	8f#\ 8F#\	.	.	.	.	.
.	.	.	.	8qcc#/ttt	.	.	.
*ped	*	*	*	*	*	*	*
.	.	8e\ 8A#\	.	8cc#y/Lttt	.	.	.
*Xped	*	*	*	*	*	*	*
.	.	.	.	.	.	.	.
.	.	.	.	8qb/ttt	.	.	.
*ped	*	*	*	*	*	*	*
.	.	8d#\J 8B\)	.	8b/Jttt	.	.	.
*Xped	*	*	*	*	*	*	*
.	.	.	.	.	.	.	.
*	*	*	*	*v	*v	*	*
=70	=70	=70	=70	=70	=70	=70
*ped	*	*	*	*	*	*
4e/	8ryy	(>8e\ 8c#\L	.	8b\Lttt	.	.
*Xped	*	*	*	*	*	*
.	.	.	.	.	.	.
.	.	.	.	8qa#/ttt	.	.
*ped	*	*	*	*	*	*
.	4.F#/	8F#\	.	8a#/ttt	.	.
*Xped	*	*	*	*	*	*
.	.	.	.	.	.	.
.	.	.	.	8qg#/ttt	.	.
*ped	*	*	*	*	*	*
4e/	.	8e\ 8B\	.	8g#/ttt	.	.
*Xped	*	*	*	*	*	*
.	.	.	.	.	.	.
.	.	.	.	8qf#/ttt	.	.
*ped	*	*	*	*	*	*
.	.	8A#\J)	.	8f#/J	.	.
*Xped	*	*	*	*	*	*
.	.	.	.	.	.	<
.	.	.	.	(<8qd#/L	.	.
.	.	.	.	8qan/	.	.
.	.	.	.	8qff#/J)	.	.
*ped	*	*	*	*	*	*
!	!	!LO:TX:a:t=P:mixed beam:problem	!	!	!	!
8ryy	2ryy	(>8BBB/L	.	4ff#\TT	.	.
4B/	.	8B\	.	.	.	.
.	.	8an\ 8d#\	.	4ff#\TTT	.	.
*Xped	*	*	*	*	*	*
8ryy	.	8B\J)	.	.	.	[
*	*v	*v	*	*	*	*
!!LO:LB:g=original
=71	=71	=71	=71	=71	=71
*	*	*	*^	*	*
*ped	*	*	*	*	*	*
8an\L 8d#\ 8B#X\	2ryy	.	4ff#/	4ryy	.	<
*Xped	*	*	*	*	*	*
8BB#X\	.	.	.	.	.	[
.	.	.	(8qg#/L	4qqg#\	.	.
.	.	.	8qee/J	.	.	.
*	*	*	*v	*v	*	*
*ped	*	*	*	*	*
8e\ 8G#\ 8C#\	.	.	8eeTT/L)	.	>
*Xped	*	*	*	*	*
.	.	.	.	.	.
.	.	.	8qdd#/TTT	.	.
*ped	*	*	*	*	*
8f#>\J 8B#\ 8G#\ 8D#\	.	.	8dd#\JTTT	.	.
*Xped	*	*	*	*	*
*	*	*	*rscale:8	*	*
*	*	*	*Xtuplet	*	*
*	*	*	*cue	*	*
.	.	.	.	.	.
*ped	*	*	*	*	*
8EE/	8ryy	.	(>60dd#/L	.	.
.	.	.	60f##X/	.	]]
.	.	.	60g#/	.	.
.	.	.	60a#/	.	.
.	.	.	60g#/	.	.
.	.	.	60f##/	.	.
.	.	.	60g#/	.	.
.	.	.	60a#/	.	.
(<8c#/L	4.G#\ 4.E\	.	.	.	.
.	.	.	60b/	.	.
.	.	.	60cc#/	.	.
.	.	.	60dd#/	.	.
.	.	.	60eeny/	.	.
.	.	.	60ff#X/	.	.
.	.	.	60gg#/	.	.
*	*	*	*8va	*	*
!	!	!	!LO:TX:b:i:t=rallent&colon;	!	!
.	.	.	60aa#/	.	.
8e/	.	.	60bb/	.	.
.	.	.	60ccc#/	.	.
.	.	.	60ddd#/	.	.
.	.	.	60eee/	.	.
.	.	.	60fff#/	.	.
.	.	.	60ggg#/	.	.
.	.	.	60aaa#/	.	.
.	.	.	60bbb/	.	.
8G#/J)	.	.	.	.	.
.	.	.	60ggg#/	.	.
.	.	.	60eee/	.	.
.	.	.	60ccc#/	.	.
*	*	*	*X8va	*	*
!	!	!	!LO:TX:a:t=loco	!	!
.	.	.	60bb/	.	.
*Xped	*	*	*	*	*
.	.	.	60gg#/	.	.
.	.	.	60ee/	.	.
.	.	.	60dd#/J)	.	.
*	*	*	*tuplet	*	*
*	*	*	*rscale:1	*	*
*	*	*	*Xcue	*	*
*v	*v	*	*	*	*
=72	=72	=72	=72	=72
*^	*	*	*	*
*	*^	*	*	*	*
!	!	!	!	!LO:TX:a:i:t=a tempo.	!	!
*ped	*	*	*	*	*	*
4ryy	8ryy	(>8FF#/L	.	4.cc#\TT	.	.
!	!	!LO:N:vis=2	!	!	!	!
.	2F#/	8F#\	.	.	.	.
*Xped	*	*	*	*	*	*
4e/	.	8A#\	.	.	.	.
.	.	.	.	8qb/TTT	.	.
*ped	*	*	*	*	*	*
.	.	8B\J	.	8b/TTT	.	.
*Xped	*	*	*	*	*	*
2e/	.	(8c#\L	.	8b\LTTT	.	.
*ped	*	*	*	*	*	*
.	.	.	.	.	.	.
.	.	.	.	8qa#/TTT	.	.
.	4.F#/	8F#\	.	8a#/TTT	.	.
*Xped	*	*	*	*	*	*
.	.	.	.	.	.	.
.	.	.	.	8qg#/TTT	.	.
.	.	.	.	.	.	.
*ped	*	*	*	*	*	*
.	.	8B\	.	8g#/TTT	.	.
*Xped	*	*	*	*	*	*
.	.	.	.	.	.	.
.	.	.	.	8qf#/TTT	.	.
*ped	*	*	*	*	*	*
.	.	8A#\J)	.	8f#/J	.	.
*Xped	*	*	*	*	*	*
.	.	.	.	.	.	.
!!LO:LB:g=original
=73	=73	=73	=73	=73	=73	=73
.	.	.	.	(<8qd#/L	.	.
.	.	.	.	8qdd#/J	.	.
.	.	.	.	8qdd#/)	.	.
*ped	*	*	*	*	*	*
!LO:TX:t=P:problem:brak zakonczenia luku	!	!	!	!	!	!
8BBB/)	2ryy	8ryy	.	(4dd#\t	.	.
(<8f#/L	.	2F#\	.	.	.	.
*Xped	*	*	*	*	*	*
.	.	.	.	8qcc##X/L	.	.
.	.	.	.	8qdd#/	.	.
.	.	.	.	8qee/	.	.
.	.	.	.	8qdd#/	.	.
.	.	.	.	8qgg#/	.	.
.	.	.	.	8qff#/J	.	.
!	!	!	!	!LO:TUP:b	!	!
8e/	.	.	.	48b#X/LLL	.	.
.	.	.	.	48cc#X/	.	.
.	.	.	.	48dd#/	.	.
.	.	.	.	48cc#/	.	.
.	.	.	.	48gg#/	.	.
.	.	.	.	48ff#\JJJ	.	.
!	!	!	!	!LO:TUP:b	!	!
8d#/J)	.	.	.	48a#/LLL	.	.
.	.	.	.	48bn/	.	.
.	.	.	.	48cc#\	.	.
.	.	.	.	48b/	.	.
.	.	.	.	48gg#\	.	.
.	.	.	.	48ff#/JJJ)	.	.
*ped	*	*	*	*	*	*
.	.	.	.	.	.	.
.	.	.	.	8qb/	.	.
2e/	(>8c#\L	.	.	8b\TTL	.	.
*Xped	*	*	*	*	*	*
.	.	.	.	.	.	.
.	.	.	.	8qa#/TTT	.	.
*ped	*	*	*	*	*	*
!	!	!LO:N:vis=4	!	!	!	!
.	8F#\	4.F#/	.	8a#\TTT	.	.
*Xped	*	*	*	*	*	*
.	.	.	.	.	.	.
.	.	.	.	8qg#/TTT	.	.
*ped	*	*	*	*	*	*
.	8B\	.	.	8g#\TTT	.	.
*Xped	*	*	*	*	*	*
.	.	.	.	.	.	.
.	.	.	.	8qf#/TTT	.	.
*ped	*	*	*	*	*	*
.	8A#\J)	.	.	8f#\J	.	.
*Xped	*	*	*	*	*	*
*v	*v	*v	*	*	*	*
=74	=74	=74	=74	=74
.	.	(>(<8qd#/L	.	.
.	.	8qan/J)	.	<
*^	*	*	*	*
*ped	*	*	*	*	*
!LO:TX:t=P:mixed beam:problem	!	!	!	!	!
4.ryy	(8BBB/L	.	16ff#\LL	.	.
.	.	.	32gg#\L	.	.
.	.	.	32ff#\JJJ	.	.
!	!	!	!LO:TUP:a	!	!
.	8B\	.	48gg#\LLL	.	.
.	.	.	48ff#\	.	.
.	.	.	48gg#\	.	.
.	.	.	48ff#\	.	.
.	.	.	48gg#\	.	.
.	.	.	48ff#\JJJ	.	.
.	8an\ 8d#\	.	4ff#\TT)	.	.
!LO:N:vis=2	!LO:N:vis=2	!	!	!	!
2B/	8B\J	.	.	.	[
!	!	!	!	!	!LO:DY:a
.	4.a\ 4.d#\	.	2ff#\TTT	.	>
8ryy	8r	.	.	.	]
*Xped	*	*	*	*	*
*v	*v	*	*	*	*
!!LO:LB:g=original
=75	=75	=75	=75	=75
*ped	*	*	*	*
!	!	!LO:TX:t=P:problem:tryl zaczyna sie wczesniej, nad nuta jedynie kasownik	!	!
!	!	!	!	!LO:DY:rj
(>4an'\ 4dn'\ 4cn'\)	.	4ff#\tt	.	pp
4a'\ 4d'\ 4c'\	.	(4ff#\ttt	.	.
.	.	8qee#X/L	.	.
!	!	!LO:TX:t=P:problem:dim. i rallent. pod 8qff#	!	!
!	!	!LO:TX:b:i:t=dim.	!	!
!	!	!LO:TX:b:i:t=rall.	!	!
.	.	8qff#/	.	.
.	.	8qggn/	.	.
.	.	8qff#/	.	.
.	.	8qaan/	.	.
.	.	8qgg/	.	.
.	.	8qff#/J	.	.
*Xped	*	*	*	*
4a'\ 4d'\ 4c'\)	.	4ff#\)	.	.
4r;>	.	4r;>	.	.
=76	=76	=76	=76	=76
*^	*	*^	*	*
!	!	!	!LO:TX:a:i:t=a tempo primo.	!	!	!
4dn/	(8cn\L	.	(>8ff#/L	8an\	.	.
.	8B\	.	8ggn/	4gn\	.	.
!LO:N:vis=4	!	!	!	!	!	!
4.c/	8B-X\	.	8ee/	.	.	.
.	8An\J	.	8ffn/J	4fn\	.	.
.	8A-X\L	.	8ccn/L	.	.	.
4Bn/	8Gn\	.	8ddn/ 8f/	4.ryy	.	.
.	8F#\	.	8dd#X/ 8f#X/	.	.	.
8B/	8G#X\J)	.	8b/J 8e/)	.	.	.
*v	*v	*	*	*	*	*
=77	=77	=77	=77	=77	=77
*	*	*	*^	*	*
8F#\	.	(>8d#/	8d#\L	2.ryy	.	.
8r	.	4g#/	8B#X\	.	.	.
4r	.	.	8e\	.	.	.
.	.	4a#/	8c#\J	.	.	.
2r	.	.	8f#\L	.	.	.
!	!	!LO:TX:b:t=cres&colon;_:problem:dynamics with extention lines	!	!	!	!LO:HP:b:t=cres&colon;
.	.	8bn/L	8d#\	.	.	<
.	.	8dd#/	8e\	[<4e/	.	.
.	.	8cc#/J	8g#\J	.	.	.
=78	=78	=78	=78	=78	=78	=78
1rF	.	8a#/	8f#\L 8e\]	2.ryy	.	.
.	.	4b/	8d#\	.	.	.
.	.	.	8g#\	.	.	.
.	.	4cc#/	8e\J	.	.	.
.	.	.	8a#\L	.	.	.
.	.	8dd#/L	8f#\	.	.	.
.	.	8ff#/	8g#\	[<4g#/	.	.
.	.	8ee/J	8b\J	.	.	[
*	*	*	*v	*v	*	*
!!LO:LB:g=original
=79	=79	=79	=79	=79	=79
*^	*	*	*	*	*
4r	4ryy	.	8cc#/ 8a#/	8g#\L]	.	.
.	.	.	4dd#/	8f#\	.	.
8G#\L	8ryy	.	.	8b\	.	.
8C#\J	4c#/	.	8ee/	8e\J	.	.
!	!	!	!LO:TX:a:i:t=ritenuto.	!	!	!
8F##X\L	.	.	8dd#/L 8a#/	4ryy	.	.
*ped	*	*	*	*	*	*
.	.	.	.	.	.	.
8d#\ 8D#\	4.ryy	.	8ff##X/ 8cc#/ 8f##X/	.	.	.
*Xped	*	*	*	*	*	*
.	.	.	.	.	.	.
.	.	.	8qg#/	.	.	.
!	!	!	!LO:TX:a:t=P:łuk pionowo od 4g# do 8aa#:problem	!	!	!
*ped	*	*	*	*	*	*
8c##X\ 8E\	.	.	8aa#/ 8b/ 8g#/	4g#\	.	>
*Xped	*	*	*	*	*	*
8B\J 8E#X\	.	.	8gg#/J 8cc##X/	.	.	.
=80	=80	=80	=80	=80	=80	=80
*	*	*	*	*	*	*^
8f#>\	4F#\	.	8cc#/L 8a#/	4ryy	.	]	.
!	!	!	!LO:TX:b:t=dim&colon;-:problem:dynamics with extention lines	!	!	!	!LO:HP:b:t=dim:
4B/	.	.	8dd#/ 8an/	.	.	>	.
.	4E\	.	8ee/	4g#\	.	.	.
8c#/	.	.	[>8a#X/J	.	.	.	.
8d#/	4D#\	.	8a#/L] 8f##X/	2ryy	.	.	.
4G#/	.	.	8b#X/ 8f#/	.	.	.	>
.	.	.	.	.	.	.	.
*ped	*	*	*	*	*	*	*
.	8C#\L	.	8dd#/ 8e#X/	.	.	.	.
*Xped	*	*	*	*	*	*	*
.	.	.	.	.	.	.	.
*ped	*	*	*	*	*	*	*
!	!LO:TX:t=P:łuk pionowo od 8FF# do 8A#:problem	!	!	!	!	!	!
8ryy	8A#\J 8FF#\	.	8cc#/J 8en/	.	.	.	.
*Xped	*	*	*	*	*	*	*
*v	*v	*	*	*	*	*	*
*	*	*v	*v	*	*	*
=81	=81	=81	=81	=81	=81
*ped	*	*	*	*	*
8B\ 8F#\ 8BB\	.	8b/ 8d#/)	.	]	]
.	.	.	.	.	.
4F#\^>	.	8r	.	.	.
.	.	(>8.bb\L	.	p>	.
(>8F#\	.	.	.	.	.
.	.	16aa#X\Jk	.	.	.
8f#\ 8d#\ 8B\	.	16aan\LL	.	.	.
.	.	16gg#\	.	.	.
4F#\	.	16ff#\	.	.	.
.	.	16aa\JJ	.	.	.
.	.	16gg#\LL	.	.	.
.	.	16ff#\	.	.	.
8F#\)	.	16ee\	.	.	.
.	.	16gg#\JJ	.	]]	.
*	*	*	*	*v	*v
!!LO:PB:g=original
=82	=82	=82	=82	=82
*ped	*	*	*	*
(8BBB/	.	16ff#\LL	.	.
.	.	16ee\	.	.
4F#\^>	.	16dd#\	.	.
.	.	16ff#\JJ	.	.
.	.	16ee\LL	.	.
.	.	16dd#\	.	.
*Xped	*	*	*	*
8F#\	.	16cc#\	.	.
.	.	16ee\JJ	.	.
*ped	*	*	*	*
8f#\ 8d#\ 8B\	.	16dd#\LL	.	.
.	.	16cc#\	.	.
4F#\	.	16b\	.	.
.	.	16an/JJ	.	.
.	.	16b\LL	.	.
.	.	16cc#\	.	.
8F#\)	.	16dd#\	.	.
*Xped	*	*	*	*
.	.	16a/JJ	.	.
=83	=83	=83	=83	=83
*ped	*	*	*	*
8BB/	.	16g#\LL	.	.
.	.	16an/	.	<
4G#\^>	.	16b\	.	.
.	.	16cc#\JJ	.	.
.	.	16dd#\LL	.	.
.	.	16ee\	.	.
*Xped	*	*	*	*
8G#\	.	16ff#\	.	.
.	.	16ff##X\JJ	.	.
8g#\ 8e\ 8B\	.	16gg#\LL	.	.
.	.	16ccc#\	.	.
4G#\	.	16bb\	.	.
.	.	16ddd#\JJ	.	.
*	*	*8va	*	*
.	.	16eee\LL	.	.
.	.	16fff##y\	.	.
8G#\	.	16ggg#\	.	.
*Xped	*	*	*	*
.	.	.	.	.
.	.	16aaa#X\JJ	.	[
!!LO:LB:g=original
=84	=84	=84	=84	=84
*^	*	*	*	*
*ped	*	*	*	*	*
4.ryy	(8BBB/	.	16bbb\LL	.	>
.	.	.	16dddd#\	.	.
.	4F#\	.	16cccc#\	.	.
.	.	.	16bbb\JJ	1	.
.	.	.	16ggg#\LL	3	.
.	.	.	16eee\	1	.
4F#/	8F#\	.	16ccc#\	3	.
.	.	.	16bb\JJ	1	.
*	*	*	*X8va	*	*
!	!	!	!LO:TX:a:t=loco	!	!
.	8e\L	.	16gg#\LL	3	.
.	.	.	16ee\	1	.
4.ryy	8F#\J)	.	16cc#\	3	.
.	.	.	16b\JJ	1	.
.	4rD	.	16g#/LL	3	.
.	.	.	16e/	1	.
.	.	.	16c#/	4	.
*Xped	*	*	*	*	*
.	.	.	16G#</JJ	2	]]
*v	*v	*	*	*	*
=85	=85	=85	=85	=85
*ped	*	*	*	*
8BBB/	.	16F#</LL	1	.
.	.	16d#/	3	.
!	!	!	!	!
.	.	.	.	pp<
(4F#\^>	.	16f#/	1	.
.	.	16dd#/JJ	2	.
.	.	8.bb\L	.	[
8F#\	.	.	.	.
.	.	16aa#X\Jk	.	.
8f#\ 8d#\ 8B\	.	16aan\LL	.	.
.	.	16ggn\	.	.
4F#\	.	16ff#\	.	.
.	.	16aa\JJ	.	.
.	.	16gg\LL	.	.
.	.	16ff#\	.	.
8F#\)	.	16ee\	.	.
*Xped	*	*	*	*
.	.	16gg\JJ	.	]]
!!LO:LB:g=original
=86	=86	=86	=86	=86
*ped	*	*	*	*
8BB/	.	16ff#\LL	.	>
.	.	16ee\	.	.
(>4F#\^>	.	16dd#\	.	.
.	.	16ggn\JJ	.	.
.	.	16ff#\LL	.	.
.	.	16ee\	.	.
*Xped	*	*	*	*
.	.	.	.	.
8F#\	.	16dd#\	.	.
.	.	16ee\JJ	.	.
*ped	*	*	*	*
8f#\ 8d#\ 8B\	.	16dd#\LL	.	.
.	.	16ccn\	.	.
4F#\	.	16b\	.	.
.	.	16an/JJ	.	.
.	.	16b\LL	.	.
.	.	16cc\	.	.
*Xped	*	*	*	*
8F#\)	.	16f#/	.	]]
.	.	16b\JJ	.	.
=87	=87	=87	=87	=87
*ped	*	*	*	*
8BBB/	.	16gn\LL	.	.
.	.	16a#X\	.	.
(>4Gn\^>	.	16b\	.	.
.	.	16cc#\JJ	.	.
.	.	16dd#\LL	.	.
.	.	16ee\	.	.
*Xped	*	*	*	*
8G\	.	16ff#\	.	.
.	.	16ggn\JJ	.	.
*ped	*	*	*	*
8gn\ 8e\ 8B\	.	16aa#X\LL	.	.
.	.	16cccn\	.	.
4G\	.	16bb\	.	.
.	.	16ddd#\JJ	.	.
*	*	*8va	*	*
.	.	16eee\LL	.	.
.	.	16fff#\	.	.
8G\)	.	16gggn\	.	.
*Xped	*	*	*	*
.	.	.	.	.
.	.	16aaa#X\JJ	.	.
!!LO:LB:g=original
=88	=88	=88	=88	=88
*ped	*	*	*	*
(8BBn'/	.	16bbb#X\LL	.	>
.	.	16dddd#\	.	.
4F#\^>	.	16cccc#\	.	.
.	.	16bbbn\JJ	.	.
.	.	16ggg#X\LL	.	.
.	.	16eee\	.	.
8F#\	.	16ccc#\	.	.
.	.	16bb\JJ	.	.
*	*	*X8va	*	*
!	!	!LO:TX:a:t=loco	!	!
8e\	.	16gg#\LL	.	.
.	.	16ee\	.	.
4F#\	.	16cc#\	.	.
.	.	16b\JJ	.	.
.	.	16g#X/LL	.	.
.	.	16e/	.	.
8F#\)	.	16c#/	.	.
*Xped	*	*	*	*
.	.	.	.	.
.	.	(16F#</JJ)	.	]]
=89	=89	=89	=89	=89
*ped	*	*	*	*
!	!	!LO:TX:t=P:problem:od "calando" linia przerywana do ostatniej nuty taktu 87.	!	!
!	!	!LO:TX:b:i:t=calando.	!	!
8BBB'/	.	[>2dd#\)	.	.
(>4F#\^>	.	.	.	.
8F#\	.	.	.	.
8f#\ 8d#\ 8B\	.	(>16dd#\LL]	.	.
.	.	16ee\	.	.
4F#\	.	16dd#\	.	.
.	.	16cc#\JJ	.	.
.	.	16dd#\LL	.	.
.	.	16ee\	.	.
8F#\)	.	16ff#\	.	.
*Xped	*	*	*	*
.	.	16f#\JJ)	.	.
=90	=90	=90	=90	=90
*^	*	*	*	*
*ped	*	*	*	*	*
(8BB'/	2ryy	.	[>2dd#\	.	.
\4F#^>	.	.	.	.	.
8F#\	.	.	.	.	.
*clefG2	*	*	*	*	*
8f#/	2d#\ 2B\	.	(>16dd#\LL]	.	.
.	.	.	16ee\	.	.
*Xped	*	*	*	*	*
4g#/^<	.	.	16dd#\	.	.
.	.	.	16cc#\JJ	.	.
.	.	.	16dd#\LL	.	.
*ped	*	*	*	*	*
.	.	.	16ee\	.	.
8f#/)	.	.	16ff#\	.	.
.	.	.	16b\JJ	.	.
!!LO:LB:g=original
=91	=91	=91	=91	=91	=91
4d#/ 4B/ 4F#/	2ryy	.	4bb\ 4dd#\)	.	.
*Xped	*	*	*	*	*
4r	.	.	4r	.	.
*clefF4	*	*	*	*	*
4ryy	4BB\	.	(>4d#/ 4B</ 4F#</	.	.
4A#/ 4F#/	4EE\	.	16d#/LL	.	.
.	.	.	16f#/	.	.
.	.	.	16.e/	.	.
.	.	.	32d#/JJk	.	.
=92	=92	=92	=92	=92	=92
2.ryy	2BB\	.	2d#/ 2B</ 2F#</)	.	.
.	4BB\	.	(>4d#/ 4B</ 4F#</	.	.
4B/ 4G#/	4EE\	.	16d#/LL	.	.
.	.	.	16f#/	.	.
.	.	.	16.e/	.	.
.	.	.	32d#/JJk	.	.
*v	*v	*	*	*	*
=93	=93	=93	=93	=93
*ped	*	*	*	*
4BB\	.	4d#/ 4B</ 4F#</	.	.
.	.	.	.	.
4r	.	16d#/LL	.	.
.	.	16b\	.	.
.	.	16.f#/	.	.
.	.	32d#/JJk	.	.
4FF#\	.	4d#>/ 4B</ 4F#</	.	.
*Xped	*	*	*	*
.	.	.	.	.
4FFF#\	.	4c#</ 4A#</ 4F#</	.	.
=94	=94	=94	=94	=94
4BBB\	.	4d#</ 4B</ 4F#</)	.	.
4rBB	.	4rg	.	.
2rBB	.	2r	.	.
!LO:TX:B:b:t=FIN.	!	!	!	!
.	.	.	.	.
==	==	==	==	==
*-	*-	*-	*-	*-
!!title: @{OTL}; @{OPS} @{ONM} publisher: @{PPR}
!!!RDF**kern: > = above
!!!RDF**kern: < = below
!!!RDF**dynam: > = "dim."
!!!RDF**kern: N = link
!!!ENC: Andrzej Borzym
!!!END: 2020-12-27
!!!rism-genre: Nocturne
!!!rism-key: B major
!!!rism-opus: op. 62, no. 1
!!!rism-title: Nocturne in B major op. 62, no. 1
!!!rism-permalink: 
!!!rism-773a-OPR: 
!!!rism-parent-permalink: 
